!!!COM: Robert Franz
!!!CNT: Deutscher
!!!TXO: Deutsche 
!!!OTL: "Zwei welke Rosen"
!!!OPS: Op. 13
!!!ONM: No. 1
!!!ONB: Original key: A Major
!!!LYR: M. Waldau
!!!ENC: Brian Bice
!!!YOR: Vocal Album, G. Schirmer, Inc., 1907
!!!ODT: 1865/
!!NB: Vocal melody and text only encoded.
**kern	**silbe
*clefG2	*
*k[f#]	*
*M2/4	*
=1	=1
{8b	{Zwei
16a	wel-
16cc	-ke
8b	Ro-
8g	-sen
=2	=2
8f#	tra2u-
4a	-men
8d	im
=3	=3
8g	San-
16f#	-de
16a	zum
8g	letz-
8e	-tan-
=4	=4
4f#}	-mal,}
8.r	.
{16b	{es
=5	=5
8b	fun-
16a	-kelt
16cc	auf
8b	ih-
8g	-ren
=6	=6
8f#	Sa2u-
4a	-men
8d	der
=7	=7
8.g	A-
16fn	-bend-
(8e-	-son-
16d)	|
16c	-ne
=8	=8
[4d	Strahl.
8d]}	|}
8r	.
=11	=11
{8b	{"Mich
16b	hat
16b	die
(16cc#	Braut
16b)	|
(16a#	ge-
16g#)	|
=12	=12
(8.f#	-tra-
16e)	|
8d#	-gen
8f#	an
=13	=13
(8b	glu2ck-
16a#)	|
16g#	-ge-
(8g#	-schwell-
16a#)	|
16g#	-ter
=14	=14
(4g#	Brust,
8f#)}	|}
{8e	{als
=15	=15
(8d#	ih-
16f#)	|
16b	-re
(16dd#	Pul-
16cc#)	|
16b	-se
16a#	ge-
=16	=16
4a#	-schla-
8b	-gen
8cc#	das
=17	=17
8f#	Lied
8g#	der
8.a#	ho2ch-
16b	-sten
=18	=18
[4b	Lust!"
8b]}	|}
8r	.
=25	=25
{8cc	{"Er
24a	leg-
24b	-te
24cc	beim
8b	Ker-
8e	-zen-
=26	=26
4a	-schei-
8g	-ne
8g	mich
=27	=27
8f#	ihr
16e	auf
16d#	den
8.e	blei-
16B	-chen
=28	=28
[4B	Mund;
8B]}	|}
8r	.
=29	=29
{8cc	{sie
(24a	lag
24b)	|
24cc	im
8b	schwar-
8e	-zen
=30	=30
4a	Schrei-
8g	-ne
8g	und
=31	=31
(8f#	bald
16e)	|
16d#	im
8.e	schwar-
16B	-zen
=32	=32
[4B	Grund!"
8B]}	|}
8r;	.
=33	=33
{8b	{Zwei
16a	wel-
16cc	-ke
8b	Ro-
8g	-sen
=34	=34
8f#	tra2u-
4a	-men
8d	im
=35	=35
8g	San-
16f#	-de
16a	zum
8g	letz-
8e	-ten-
=36	=36
4f#}	-mal,}
8.r	.
{16b	{ver-
=37	=37
8b	-lo-
16a	-schen
16cc	auf
8b	ih-
8g	-ren
=38	=38
8f#	Sa2u-
4a	-men
8d	ist
=39	=39
8g	lei-
16fn	-se
16e-	der
(8e-	letz-
16d)	|
16c	-te
=40	=40
[4d	Strahl.
8d]}	|}
8r	.
*-	*-
